X: 38655
T: Storyteller, The
R: strathspey
M: 4/4
K: Cmajor
EEC2CCE2|EEG2FEF2|FFD2FFD2|FED2CDC2|
zEG2GGA2|AGF2EFG2|GGD2DDG2|GGF2EDC2|
z2C2C2C2|DEG2FEF2|zF2FED2D|DFED2C3|
zEG2GGA2|AGF2EFG2|zGD2DDG2|GGF2EDC2|C2z6||

